lib/brands/icons/facebook.svg

<svg xmlns="http://www.w3.org/2000/svg" fill="none" aria-hidden="true" viewBox="0 0 48 48"><g id="facebook-Icon"><path id="Path" fill="#1877F2" d="M31.4463 26L32.335 20.2088H26.7782V16.4506C26.7782 14.8663 27.5544 13.3219 30.0432 13.3219H32.5694V8.39125C32.5694 8.39125 30.2769 8 28.085 8C23.5088 8 20.5175 10.7738 20.5175 15.795V20.2088H15.4307V26H20.5175V40H26.7782V26H31.4463Z"/></g></svg>

<svg xmlns="http://www.w3.org/2000/svg" fill="none" aria-hidden="true" viewBox="0 0 48 48"><path fill="#1877F2" d="m31.446 26 .889-5.791h-5.557V16.45c0-1.585.776-3.13 3.265-3.13h2.526V8.39S30.277 8 28.085 8c-4.576 0-7.568 2.774-7.568 7.795v4.414h-5.086V26h5.086v14h6.261V26h4.668Z"/></svg>
